!!!COM: Paul Hindemith
!!!OTL: [T626_Hin-w28p3m14-25]
**kern	**kern	**dynam
*grp:A	*grp:B	*
*part1	*part1	*part1
*staff2	*staff1	*
*I"Piano	*	*
*I'Pno.	*	*
*ICklav	*ICklav	*
*Ipiano	*Ipiano	*
*clefF4	*clefG2	*
*k[]	*k[]	*
*C:	*C:	*
*	*	*
!	!LO:TX:t=[[eighth]=170]	!
16DLL)j	16f	p
16C#X	(8cniL	.
16D	.	.
!	!LO:TX:b:i:t=cresc.	!
16AAJJ	16c-X^Jk 16d-X)	.
16BBLL	16r	.
16CnJ	16en'LL	.
8AA-XJ	16f'	.
.	([16gJJ	.
=	=	=
16FLL	16gLL]	.
16E	16g-XJJ 16a-X)	.
16F	16r	.
16CJJ	16bn'	.
16DLL	16cc'KL	.
16E-XJ	(8dd	.
8C-XJ	.	.
.	16dd-X^Jk 16ee-X)	.
=	=	=
16ALL	16r	.
16G#X	(16ccKL	.
16A	8ddnJ	.
16EJJ	.	.
16F#XLL	16dd-X^LL 16ee-X)	.
16GnJ	16r	.
8DJ	(16cc	.
.	[16ddnJJ	.
=	=	=
16ALL	16ddLL]	.
16G#X	16dd-X^ 16ee-X)	.
16A	16r	.
16EJJ	(16ccJJ	.
16F#XLL	8ddnL	.
16GnJ	.	.
8DJ	16dd-X^Jk 16ee-)	.
.	16r	.
=1	=1	=1
*M5/16	*M5/16	*
!LO:TX:t=P:problem:all time signatures are inside parentheses	!LO:TX:t=P:problem:all time signatures are inside parentheses	!
16ALL	(16ccKL	.
16G#X	8dd	.
16A	.	.
16EJJ	16dd-X^Jk 16ee-X)	.
16r	16r	.
=2	=2	=2
8r	(16ff^LL	f
.	16ee	.
(16E-XLL	16ff	.
16D-XJJ	16ccJJ	.
8E-)	16ffLL	.
.	16bb-X	.
16AA'^LL	16aa-X	.
16GG'^	16bb-JJ	.
16FF'^	16ggLL	.
16EE'^J	16ff	.
8DD'^J	16gg	.
.	16ee-XJJ	.
=-	=-	=-
*M3/16	*M3/16	*
16r	16cccLL	.
(16AA-XLL	16gg	.
16GG-XJJ	16aanJJ)	.
=3	=3	=3
8FF^)	(16ff^LL	<
.	16ee	.
(16E-XLL	16ff	.
16D-XJ	16ccJJ	.
8E-J)	16ffLL	.
.	16bb-X	.
16AAn'^LL	16aa-X	.
16GG'^JJ	16bb-JJ	.
=-	=-	=-
*M3/8	*M3/8	*
16FF'^LL	16ggLL	.
16EE'^JJ	16ff	.
8DD'^L	16gg	.
.	16ee-X	.
16cL	16ccc	.
16GJJ	16ggJJ)	[[
=4	=4	=4
*^	*	*
16ryy@	16ALL	16aanLL	ff
16ryy@	16G#XJJ	16gg#XJJ	.
4A^	16r^	(48aa^LLL	.
.	.	48ccc	.
.	.	48bbJJ	.
.	8.AA-X 8.C 8.F	8.aaJ)	.
*v	*v	*^	*
8E	8ee	16ddLL	.
.	.	16ccJJ	.
*	*v	*v	*
=5	=5	=5
16BBLL	16bLL	.
16AA#XJJ	16a#XJJ	.
*^	*	*
4BB^	16r	(48b^LLL	.
.	.	48dd	.
.	.	48cc#XJJ	.
.	8.CC 8.GG	8.bJ)	>
*v	*v	*^	*
8FF#X	8f#X	16eLL	]
.	.	16dJJ	.
*	*v	*v	*
*	*clefF4	*
=6	=6	=6
*M11/16	*	*
!LO:TX:t=P:problem:cross-bar beaming to be implemented	!	!
16r	(16c#X^LL	p
!LO:TX:a:B:t=(quasi 3/16)	!	!
(8CCnL	16B#X	.
.	16c#	.
16DDJk	16G#XJJ	.
8EE-XL	16c#LL	.
.	16f#X	.
16FFJk	16e	.
8GGL	16f#JJ	.
=-	=-	=-
*	*M3/16	*
.	16d#XLL	.
16EE-XJk)	16g#X	.
([16CCLL	16BnJJ)	.
=7	=7	=7
*M13/16	*	*
16CC]	(16c#X^LL	.
16DDJJ	16B#X	.
8EE-XL	16c#	.
.	16G#XJJ	.
16FFJk	16c#LL	.
8GGL	16f#X	.
.	16e	.
16EE-XJk)	16f#JJ	.
=-	=-	=-
*	*M5/16	*
(8CC-XL 8AA-X	16d#XLL	.
.	16g#X	.
16BBB-XJk 16GG	16Bn	.
8AAA-XL 8FF	16c#X	.
.	16AJJ	.
=8	=8	=8
*M7/16	*M7/16	*
16BB-XJk	16BniLL	<
8DD-XL 8GG	16A	.
.	16B	.
16AA-XJk	16G	[ >
16FFLL	16d	.
16GG-X	16A	.
16DD-XJJ)	16BJJ)	]
=	=	=
*-	*-	*-
!!!system-decoration: [({(s1,s2)})]
!!!Xfilter: slurcheck
!!!RDF**kern: i = editorial accidental, parentheses
!!!RDF**kern: j = marked note, color="magenta", text="extra)"
